X: 1
T: the Sleeping Tune  v.2
C: Gordon Duncan
R: strathspey
Z: 2014 John Chambers <jc:trillian.mit.edu>
S: printed page of unknown origin in Concord Slow Scottish Session collection
M: C
L: 1/8
K: Bm
[|\
B2 f4 fe/f/ | g2gf fecd | e2 e4 ed | e2-ed efdc |\
d2 d4 dc | d2-dc decB | c2 c4 cB | c3d efdc ||
B2 f4 fe/f/ | g2gf fecd | e2 e4 ed | e2-ed efdc |\
d2 d4 dc | d2-dc decB | c2 c4 cB | c3B effe ||
[|\
d2 a4 cd | acda cddB | c2 a4 cB | c2-cB cddc |\
B2 a4 BA | B2-BA BcdB | c3B cded | e4- effe ||
d2 a4 cd | acda cddB | c2 a4 cB | c2-cB cddc |\
B2 a4 BA | B2-BA BcdB | c3B cded | e4- e2dc |]
